X: 13305
T: Flaherty's
R: hornpipe
M: 4/4
K: Dmajor
dB|:"D"AE (3DFD A,DFA|"A"dced "G"BcdB|"D"AF (3DFD A,DFA|"Em"BAGF "A"EA,CE|
"D"AF (3DFD A,DFA|"A"dced "G"BcdB|"D"AFdB "Em"AGFE||1 "D"(3DED "A"CE "D"D2 dB:|2 "D"(3DED "A"CE "D"D2 z A||
|:"G"BABc "D"dcde|"Em"bagf "A"edcd|"Em"cEEF "G"GABc|"A"ec "G"(3dcB "A"AGFG|
"D"AF (3DFD A,DFA|"A"dced "G"BcdB|"D"AFdB "Em"AGFE||1 "D"(3DED "A"CE "D"D2 z A:|2 "D"(3DED "A"CE "D"D2||

